X:34
T:Polska efter Petter Dufva
T:(Ma6 34)
R:Polska
Z:Åke Persson, 2009-07-29
S:efter Petter Dufva
B:http://www.smus.se/earkiv/fmk/browselarge.php?lang=sw&katalogid=MA+6&bildnr=00037
B:Jämför SMUS - katalog MMD 31 bild 28 (längst ned t.h.) från [[Platser/Tyskland]]
B:Petter Dufvas notbok
O:Verkelbäck, Småland
M:3/4
L:1/8
K:D
|: dc B2 e2 | dc dA FD | dB g2 f2 | ed/2c/2 d2 D2 :|
|: cd e2 a2 | aggf fe | cd e2 a2 | aggffe | dB g2 f2 | ed/c/ d2 D2 :|

